X:1
T:Lesson 7 - Gavotte
M:C
K:D
L:1/4
vD F A d|B2 A2|B A G F|F2 E2|D F A d|B B A2|A G F E|D2 Z1|
vd c B A|B A G F|G F E D|E2 A2|D F A d|B2 A2|A G F E|D2 Z1|]
